X:3004
T:Christmas is Coming
R:March
C:Trad.
O:England
Z:Paul Hardy's Xmas Tunebook 2019 (see www.paulhardy.net). Creative Commons cc by-nc-sa licenced.
M:2/2
L:1/4
Q:1/2=100
K:D
"D"d2 A>A|d d2 d|"G"ddcB|"A"A4|"D"d>D DE|FDFA|"G"B2 "A7"AG|"D"F4|
"D"F>G FE|DdAF|"G"G2 "A"A2|"D"D4|F>G FE|DdAF|"A7"A2 c2|"D"d4|]
W:Christmas is coming, the goose is getting fat
W:Please put a penny in the old man's hat
W:If you haven't got a penny, a ha'penny will do
W:If you haven't got a ha'penny, then God bless you!

